X: 43622
T: Zakynthos, The
R: jig
M: 6/8
K: Aminor
|:a3 gag|e2 a3 g|ecc BcB|AFF F3|
EAB cBA|FAB cBA|BGB dcB|Bcd cBA:|
|:EAB cBA|FAB cBA|BGB dcB|Bcd cBA|
EAB cBA|FAB cBA|BGB dcB|1 B2 A2 F2:|2 A3 ABc||
|:d2 d2 c2|dc2 B2A|d2 d2 cd|B3- B2A|
d2 d2 c2|dc2 B2A|d2 d2 cd|e3- e3:|

